static/assets/img/icons/theme/food/orange.svg

<svg height="24" viewBox="0 0 24 24" width="24" xmlns="http://www.w3.org/2000/svg"><g fill="none" fill-rule="evenodd"><path d="m0 0h24v24h-24z" opacity="0"/><g fill="#000"><path d="m12 19c3.8659932 0 7-3.1340068 7-7 0-3.86599325-3.1340068-7-7-7-3.86599325 0-7 3.13400675-7 7 0 3.8659932 3.13400675 7 7 7zm0 2c-4.97056275 0-9-4.0294373-9-9 0-4.97056275 4.02943725-9 9-9 4.9705627 0 9 4.02943725 9 9 0 4.9705627-4.0294373 9-9 9z" fill-rule="nonzero"/><path d="m12 9.66666667c-.6666667-1.02151676-1-1.78540565-1-2.29166667 0-.75939153.4477153-1.375 1-1.375s1 .61560847 1 1.375c0 .50626102-.3333333 1.27014991-1 2.29166667zm0 4.33333333c.6666667 1.0215168 1 1.7854056 1 2.2916667 0 .7593915-.4477153 1.375-1 1.375s-1-.6156085-1-1.375c0-.5062611.3333333-1.2701499 1-2.2916667zm2.3333333-2c1.0215168-.6666667 1.7854057-1 2.2916667-1 .7593915 0 1.375.4477153 1.375 1s-.6156085 1-1.375 1c-.506261 0-1.2701499-.3333333-2.2916667-1zm-4.3333333 0c-1.02151676.6666667-1.78540565 1-2.29166667 1-.75939153 0-1.375-.4477153-1.375-1s.61560847-1 1.375-1c.50626102 0 1.27014991.3333333 2.29166667 1zm3.6499158-1.6499158c.2509169-1.19372597.5553657-1.96957924.9133463-2.32755984.5369709-.53697091 1.2888543-.65568934 1.6793786-.26516505s.2718058 1.14240771-.2651651 1.67937861c-.3579806.3579806-1.1338338.66242938-2.3275598.91334628zm-3.0641294 3.0641294c-.2509169 1.1937259-.5553656 1.9695792-.91334622 2.3275598-.5369709.5369709-1.28885431.6556893-1.67937861.265165-.39052429-.3905243-.27180585-1.1424077.26516505-1.6793786.3579806-.3579806 1.13383387-.6624293 2.32755978-.9133462zm3.0641294.2357022c1.193726.2509169 1.9695792.5553657 2.3275598.9133463.5369709.5369709.6556894 1.2888543.2651651 1.6793786s-1.1424077.2718058-1.6793786-.2651651c-.3579806-.3579806-.6624294-1.1338338-.9133463-2.3275598zm-3.0641294-3.0641294c-1.19372591-.2509169-1.96957918-.5553656-2.32755978-.91334622-.5369709-.5369709-.65568934-1.28885431-.26516505-1.67937861.3905243-.39052429 1.14240771-.27180585 1.67937861.26516505.35798062.3579806.66242932 1.13383387.91334622 2.32755978z" opacity=".3"/></g></g></svg>

<svg width="24px" height="24px" viewBox="0 0 24 24" version="1.1" xmlns="http://www.w3.org/2000/svg" xmlns:xlink="http://www.w3.org/1999/xlink">
    <title>Icon For Orange</title>
    <g stroke="none" stroke-width="1" fill="none" fill-rule="evenodd">
        <rect opacity="0" x="0" y="0" width="24" height="24"></rect>
        <path d="M12,19 C15.8659932,19 19,15.8659932 19,12 C19,8.13400675 15.8659932,5 12,5 C8.13400675,5 5,8.13400675 5,12 C5,15.8659932 8.13400675,19 12,19 Z M12,21 C7.02943725,21 3,16.9705627 3,12 C3,7.02943725 7.02943725,3 12,3 C16.9705627,3 21,7.02943725 21,12 C21,16.9705627 16.9705627,21 12,21 Z" fill="#000000" fill-rule="nonzero"></path>
        <path d="M12,9.66666667 C11.3333333,8.64514991 11,7.88126102 11,7.375 C11,6.61560847 11.4477153,6 12,6 C12.5522847,6 13,6.61560847 13,7.375 C13,7.88126102 12.6666667,8.64514991 12,9.66666667 Z M12,14 C12.6666667,15.0215168 13,15.7854056 13,16.2916667 C13,17.0510582 12.5522847,17.6666667 12,17.6666667 C11.4477153,17.6666667 11,17.0510582 11,16.2916667 C11,15.7854056 11.3333333,15.0215168 12,14 Z M14.3333333,12 C15.3548501,11.3333333 16.118739,11 16.625,11 C17.3843915,11 18,11.4477153 18,12 C18,12.5522847 17.3843915,13 16.625,13 C16.118739,13 15.3548501,12.6666667 14.3333333,12 Z M10,12 C8.97848324,12.6666667 8.21459435,13 7.70833333,13 C6.9489418,13 6.33333333,12.5522847 6.33333333,12 C6.33333333,11.4477153 6.9489418,11 7.70833333,11 C8.21459435,11 8.97848324,11.3333333 10,12 Z M13.6499158,10.3500842 C13.9008327,9.15635823 14.2052815,8.38050496 14.5632621,8.02252436 C15.100233,7.48555345 15.8521164,7.36683502 16.2426407,7.75735931 C16.633165,8.1478836 16.5144465,8.89976702 15.9774756,9.43673792 C15.619495,9.79471852 14.8436418,10.0991673 13.6499158,10.3500842 Z M10.5857864,13.4142136 C10.3348695,14.6079395 10.0304208,15.3837928 9.67244018,15.7417734 C9.13546928,16.2787443 8.38358587,16.3974627 7.99306157,16.0069384 C7.60253728,15.6164141 7.72125572,14.8645307 8.25822662,14.3275598 C8.61620722,13.9695792 9.39206049,13.6651305 10.5857864,13.4142136 Z M13.6499158,13.6499158 C14.8436418,13.9008327 15.619495,14.2052815 15.9774756,14.5632621 C16.5144465,15.100233 16.633165,15.8521164 16.2426407,16.2426407 C15.8521164,16.633165 15.100233,16.5144465 14.5632621,15.9774756 C14.2052815,15.619495 13.9008327,14.8436418 13.6499158,13.6499158 Z M10.5857864,10.5857864 C9.39206049,10.3348695 8.61620722,10.0304208 8.25822662,9.67244018 C7.72125572,9.13546928 7.60253728,8.38358587 7.99306157,7.99306157 C8.38358587,7.60253728 9.13546928,7.72125572 9.67244018,8.25822662 C10.0304208,8.61620722 10.3348695,9.39206049 10.5857864,10.5857864 Z" fill="#000000" opacity="0.3"></path>
    </g>
</svg>
